X: 36193
T: Scottish Lovers, The
R: jig
M: 6/8
K: Gmajor
DEG GFG|A3 AGA|B2c BAG|
ABA AGE|G3 E2D|DEG !fermata!G3:|
|:Bcd dcd|e3 edc|Bcd dcd|e=fg BAG|
BcA B3|ABA AGA|BcB BAG|ABA AGE|
G3 E2D|DEG !fermata! G3:|

